X: 180739
T: Road to Sligo
S: "Collection of the Dance Music of Ireland" (P. McNulty)
Z: B.Black
L: 1/8
M: 9/8
R: slip jig
K: D
ABA F2 G A3|BcB G2 A Bcd|ABA F2 G A3|efe e2 d cBA :|
def fge f3|def fgf ecA|def fge f3|efe e2 d cBA :|
